assets/img/wc-icon.svg

<svg fill="none" height="52" viewBox="0 0 52 52" width="52" xmlns="http://www.w3.org/2000/svg"><path d="m15.372 19.507c1.3854-1.4137 3.039-2.5368 4.8638-3.3035 1.8249-.7667 3.7843-1.1616 5.7637-1.1616s3.9388.3949 5.7637 1.1616c1.8248.7667 3.4784 1.8898 4.8638 3.3035l.706.717c.1411.1439.2201.3375.2201.539s-.079.3951-.2201.539l-2.416 2.451c-.0346.0354-.076.0636-.1217.0828s-.0947.0291-.1443.0291-.0986-.0099-.1443-.0291-.0871-.0474-.1217-.0828l-.972-.986c-.9665-.9863-2.12-1.7699-3.3931-2.3048-1.273-.5349-2.64-.8104-4.0209-.8104s-2.7479.2755-4.0209.8104c-1.2731.5349-2.4266 1.3185-3.3931 2.3048l-1.04 1.056c-.0346.0354-.076.0636-.1217.0828s-.0947.0291-.1443.0291-.0986-.0099-.1443-.0291-.0871-.0474-.1217-.0828l-2.417-2.451c-.1411-.1439-.2201-.3375-.2201-.539s.079-.3951.2201-.539zm26.252 5.07 2.15 2.181c.1411.1439.2201.3374.2201.539 0 .2015-.079.3951-.2201.539l-9.697 9.837c-.0693.0707-.152.1269-.2432.1653-.0913.0383-.1893.0581-.2883.0581s-.197-.0198-.2883-.0581c-.0912-.0384-.1739-.0946-.2432-.1653l-6.882-6.981c-.0173-.0177-.038-.0318-.0608-.0414-.0229-.0096-.0474-.0146-.0722-.0146s-.0493.005-.0721.0146c-.0229.0096-.0436.0237-.0609.0414l-6.882 6.98c-.0693.0707-.152.1269-.2432.1653-.0913.0383-.1893.0581-.2883.0581s-.197-.0198-.2883-.0581c-.0912-.0384-.1739-.0946-.2432-.1653l-9.697-9.835c-.14108-.1439-.22011-.3375-.22011-.539 0-.2016.07903-.3951.22011-.539l2.15-2.181c.0693-.0707.152-.1269.2432-.1653.0913-.0383.1893-.0581.2883-.0581s.197.0198.2883.0581c.0912.0384.1739.0946.2432.1653l6.883 6.981c.0173.0176.0379.0315.0607.041.0227.0096.0471.0145.0718.0145s.0491-.0049.0718-.0145c.0228-.0095.0434-.0234.0607-.041l6.883-6.981c.0693-.0706.1519-.1266.2431-.1649.0911-.0383.189-.058.2879-.058s.1968.0197.2879.058c.0912.0383.1738.0943.2431.1649l6.883 6.981c.0173.0177.038.0318.0609.0414.0228.0096.0473.0146.0721.0146s.0493-.005.0722-.0146c.0228-.0096.0435-.0237.0608-.0414l6.882-6.981c.0693-.0707.152-.1269.2432-.1653.0913-.0383.1893-.0581.2883-.0581s.197.0198.2883.0581c.0912.0384.1739.0946.2432.1653z" fill="#fff"/></svg>

<svg width="52" height="52" viewBox="0 0 52 52" fill="none" xmlns="http://www.w3.org/2000/svg">
<path d="M15.372 19.507C16.7574 18.0933 18.411 16.9702 20.2358 16.2035C22.0607 15.4368 24.0201 15.0419 25.9995 15.0419C27.9789 15.0419 29.9383 15.4368 31.7632 16.2035C33.588 16.9702 35.2416 18.0933 36.627 19.507L37.333 20.224C37.4741 20.3679 37.5531 20.5615 37.5531 20.763C37.5531 20.9645 37.4741 21.1581 37.333 21.302L34.917 23.753C34.8824 23.7884 34.841 23.8166 34.7953 23.8358C34.7496 23.855 34.7006 23.8649 34.651 23.8649C34.6014 23.8649 34.5524 23.855 34.5067 23.8358C34.461 23.8166 34.4196 23.7884 34.385 23.753L33.413 22.767C32.4465 21.7807 31.293 20.9971 30.0199 20.4622C28.7469 19.9273 27.3799 19.6518 25.999 19.6518C24.6181 19.6518 23.2511 19.9273 21.9781 20.4622C20.705 20.9971 19.5515 21.7807 18.585 22.767L17.545 23.823C17.5104 23.8584 17.469 23.8866 17.4233 23.9058C17.3776 23.925 17.3286 23.9349 17.279 23.9349C17.2294 23.9349 17.1804 23.925 17.1347 23.9058C17.089 23.8866 17.0476 23.8584 17.013 23.823L14.596 21.372C14.4549 21.2281 14.3759 21.0345 14.3759 20.833C14.3759 20.6315 14.4549 20.4379 14.596 20.294L15.372 19.507ZM41.624 24.577L43.774 26.758C43.9151 26.9019 43.9941 27.0954 43.9941 27.297C43.9941 27.4985 43.9151 27.6921 43.774 27.836L34.077 37.673C34.0077 37.7437 33.925 37.7999 33.8338 37.8383C33.7425 37.8766 33.6445 37.8964 33.5455 37.8964C33.4465 37.8964 33.3485 37.8766 33.2572 37.8383C33.166 37.7999 33.0833 37.7437 33.014 37.673L26.132 30.692C26.1147 30.6743 26.094 30.6602 26.0712 30.6506C26.0483 30.641 26.0238 30.636 25.999 30.636C25.9742 30.636 25.9497 30.641 25.9269 30.6506C25.904 30.6602 25.8833 30.6743 25.866 30.692L18.984 37.672C18.9147 37.7427 18.832 37.7989 18.7408 37.8373C18.6495 37.8756 18.5515 37.8954 18.4525 37.8954C18.3535 37.8954 18.2555 37.8756 18.1642 37.8373C18.073 37.7989 17.9903 37.7427 17.921 37.672L8.224 27.837C8.08292 27.6931 8.00389 27.4995 8.00389 27.298C8.00389 27.0964 8.08292 26.9029 8.224 26.759L10.374 24.578C10.4433 24.5073 10.526 24.4511 10.6172 24.4127C10.7085 24.3744 10.8065 24.3546 10.9055 24.3546C11.0045 24.3546 11.1025 24.3744 11.1938 24.4127C11.285 24.4511 11.3677 24.5073 11.437 24.578L18.32 31.559C18.3373 31.5766 18.3579 31.5905 18.3807 31.6C18.4034 31.6096 18.4278 31.6145 18.4525 31.6145C18.4772 31.6145 18.5016 31.6096 18.5243 31.6C18.5471 31.5905 18.5677 31.5766 18.585 31.559L25.468 24.578C25.5373 24.5074 25.6199 24.4514 25.7111 24.4131C25.8022 24.3748 25.9001 24.3551 25.999 24.3551C26.0979 24.3551 26.1958 24.3748 26.2869 24.4131C26.3781 24.4514 26.4607 24.5074 26.53 24.578L33.413 31.559C33.4303 31.5767 33.451 31.5908 33.4739 31.6004C33.4967 31.61 33.5212 31.615 33.546 31.615C33.5708 31.615 33.5953 31.61 33.6182 31.6004C33.641 31.5908 33.6617 31.5767 33.679 31.559L40.561 24.578C40.6303 24.5073 40.713 24.4511 40.8042 24.4127C40.8955 24.3744 40.9935 24.3546 41.0925 24.3546C41.1915 24.3546 41.2895 24.3744 41.3808 24.4127C41.472 24.4511 41.5547 24.5073 41.624 24.578V24.577Z" fill="white"/>
</svg>
